X:17
T:Cuckolds All In A Row
M:6/4
L:1/4
Q:3/4=100
B:Playford, Dancing Master,1st Ed.,1651.
O:England;London
R:Duple Minor
Z:Chris Partington <www.cpartington.plus>
P:(AABB)3
K:Cmaj clef=treble
P:A
[||: "G"d'2 d' d'2 c'|"G"b2 c' d'2 g|"F"a2a "G"b>ab \
| [1 "C"c'6:| [2 "C"c'3-c'2 e ||
P:B
[||:"F"fgf "C"e>de|"G"d2d bab|"C"c'2 g "F"a g2|"C"e3 c>de|
"F"f>gf "C"e>de|"G"d2d bab|"C"c'2g "F"ag2 \
|1 "C"e3 c2 e :|2 "C"e3 c3 |]

